icons/svg/road_shields/h_us_state_truck_icon_shield.svg

<?xml version="1.0" encoding="UTF-8" standalone="no"?>
<!-- Generator: Adobe Illustrator 16.0.4, SVG Export Plug-In . SVG Version: 6.00 Build 0)  -->

<svg
   xmlns:dc="http://purl.org/dc/elements/1.1/"
   xmlns:cc="http://creativecommons.org/ns#"
   xmlns:rdf="http://www.w3.org/1999/02/22-rdf-syntax-ns#"
   xmlns:svg="http://www.w3.org/2000/svg"
   xmlns="http://www.w3.org/2000/svg"
   xmlns:sodipodi="http://sodipodi.sourceforge.net/DTD/sodipodi-0.dtd"
   xmlns:inkscape="http://www.inkscape.org/namespaces/inkscape"
   version="1.1"
   id="Слой_1"
   x="0px"
   y="0px"
   width="25"
   height="33"
   viewBox="0 0 25 33"
   enable-background="new 0 0 17.143 17.17"
   xml:space="preserve"
   inkscape:version="0.91 r"
   sodipodi:docname="h_us_state_truck_icon_shield.svg"><metadata
     id="metadata13"><rdf:RDF><cc:Work
         rdf:about=""><dc:format>image/svg+xml</dc:format><dc:type
           rdf:resource="http://purl.org/dc/dcmitype/StillImage" /><dc:title /></cc:Work></rdf:RDF></metadata><defs
     id="defs11" /><sodipodi:namedview
     pagecolor="#ffffff"
     bordercolor="#666666"
     borderopacity="1"
     objecttolerance="10"
     gridtolerance="10"
     guidetolerance="10"
     inkscape:pageopacity="0"
     inkscape:pageshadow="2"
     inkscape:window-width="1920"
     inkscape:window-height="1004"
     id="namedview9"
     showgrid="false"
     inkscape:zoom="19.43823"
     inkscape:cx="5.7364122"
     inkscape:cy="22.925712"
     inkscape:window-x="1680"
     inkscape:window-y="0"
     inkscape:window-maximized="1"
     inkscape:current-layer="Слой_1" /><rect
     style="color:#000000;clip-rule:evenodd;display:inline;overflow:visible;visibility:visible;opacity:1;isolation:auto;mix-blend-mode:normal;color-interpolation:sRGB;color-interpolation-filters:linearRGB;solid-color:#000000;solid-opacity:1;fill:#ffffff;fill-opacity:1;fill-rule:evenodd;stroke:#515151;stroke-width:1.08273661;stroke-linecap:butt;stroke-linejoin:miter;stroke-miterlimit:4;stroke-dasharray:none;stroke-dashoffset:0;stroke-opacity:1;marker:none;color-rendering:auto;image-rendering:auto;shape-rendering:auto;text-rendering:auto;enable-background:accumulate"
     id="rect4135"
     width="19.803215"
     height="7.0026784"
     x="2.598392"
     y="0.54335397"
     ry="0" /><path
     inkscape:connector-curvature="0"
     id="path4146"
     style="font-style:normal;font-variant:normal;font-weight:bold;font-stretch:normal;font-size:medium;line-height:125%;font-family:Sans;-inkscape-font-specification:'Sans Bold';letter-spacing:0px;word-spacing:0px;fill:#515151;fill-opacity:1;stroke:none;stroke-width:1px;stroke-linecap:butt;stroke-linejoin:miter;stroke-opacity:1"
     d="m 3.9847714,2.0783717 3.0135777,0 0,0.7686904 -1.0840996,0 0,3.1751404 -0.8431885,0 0,-3.1751404 -1.0862896,0 0,-0.7686904 z" /><path
     inkscape:connector-curvature="0"
     id="path4148"
     style="font-style:normal;font-variant:normal;font-weight:bold;font-stretch:normal;font-size:medium;line-height:125%;font-family:Sans;-inkscape-font-specification:'Sans Bold';letter-spacing:0px;word-spacing:0px;fill:#515151;fill-opacity:1;stroke:none;stroke-width:1px;stroke-linecap:butt;stroke-linejoin:miter;stroke-opacity:1"
     d="m 8.6299737,3.8270763 q 0.2650021,0 0.3788873,-0.1188697 0.1160753,-0.1188696 0.1160753,-0.3909491 0,-0.2694378 -0.1160753,-0.3856659 Q 8.8949758,2.8153638 8.6299737,2.8153638 l -0.3547963,0 0,1.0117128 0.3547963,0 z m -0.3547963,0.7026515 0,1.4924747 -0.8431884,0 0,-3.9438308 1.2877787,0 q 0.6460796,0 0.9461233,0.2615132 0.3022338,0.2615133 0.3022338,0.8268044 0,0.3909491 -0.1576872,0.641896 Q 9.6549405,4.0595324 9.3395661,4.178402 9.5125839,4.22595 9.6483701,4.395009 9.7863465,4.5614265 9.9265129,4.902186 l 0.4577311,1.1200165 -0.8979412,0 L 9.0877046,5.0421881 Q 8.9672491,4.7463348 8.8424134,4.6380314 8.7197677,4.5297278 8.5138983,4.5297278 l -0.2387209,0 z" /><path
     inkscape:connector-curvature="0"
     id="path4150"
     style="font-style:normal;font-variant:normal;font-weight:bold;font-stretch:normal;font-size:medium;line-height:125%;font-family:Sans;-inkscape-font-specification:'Sans Bold';letter-spacing:0px;word-spacing:0px;fill:#515151;fill-opacity:1;stroke:none;stroke-width:1px;stroke-linecap:butt;stroke-linejoin:miter;stroke-opacity:1"
     d="m 10.883586,2.0783717 0.843189,0 0,2.3641851 q 0,0.4886863 0.131406,0.70001 0.133597,0.2086824 0.433641,0.2086824 0.302233,0 0.433639,-0.2086824 0.133596,-0.2113237 0.133596,-0.70001 l 0,-2.3641851 0.843189,0 0,2.3641851 q 0,0.8373706 -0.348226,1.2468104 -0.348226,0.4094403 -1.062198,0.4094403 -0.711784,0 -1.06001,-0.4094403 -0.348226,-0.4094398 -0.348226,-1.2468104 l 0,-2.3641851 z" /><path
     inkscape:connector-curvature="0"
     id="path4152"
     style="font-style:normal;font-variant:normal;font-weight:bold;font-stretch:normal;font-size:medium;line-height:125%;font-family:Sans;-inkscape-font-specification:'Sans Bold';letter-spacing:0px;word-spacing:0px;fill:#515151;fill-opacity:1;stroke:none;stroke-width:1px;stroke-linecap:butt;stroke-linejoin:miter;stroke-opacity:1"
     d="m 17.120992,5.8055954 q -0.232151,0.1452851 -0.484013,0.2192481 -0.251861,0.07396 -0.525624,0.07396 -0.816907,0 -1.294349,-0.5494417 -0.477441,-0.5520834 -0.477441,-1.4951159 0,-0.945674 0.477441,-1.495116 0.477442,-0.5520834 1.294349,-0.5520834 0.273763,0 0.525624,0.073963 0.251862,0.073963 0.484013,0.2192484 l 0,0.8162383 q -0.234341,-0.192833 -0.462111,-0.2826456 -0.227771,-0.089812 -0.479633,-0.089812 -0.45116,0 -0.709592,0.3486842 -0.258432,0.3486843 -0.258432,0.9615234 0,0.6101974 0.258432,0.9588818 0.258432,0.3486842 0.709592,0.3486842 0.251862,0 0.479633,-0.089812 0.22777,-0.089812 0.462111,-0.2826456 l 0,0.8162382 z" /><path
     inkscape:connector-curvature="0"
     id="path4154"
     style="font-style:normal;font-variant:normal;font-weight:bold;font-stretch:normal;font-size:medium;line-height:125%;font-family:Sans;-inkscape-font-specification:'Sans Bold';letter-spacing:0px;word-spacing:0px;fill:#515151;fill-opacity:1;stroke:none;stroke-width:1px;stroke-linecap:butt;stroke-linejoin:miter;stroke-opacity:1"
     d="m 17.821823,2.0783717 0.843188,0 0,1.4396434 1.215506,-1.4396434 0.978975,0 -1.574682,1.8675742 1.73675,2.0762566 -1.055629,0 -1.30092,-1.5532302 0,1.5532302 -0.843188,0 0,-3.9438308 z" /></svg>

<svg width="25" height="33" viewBox="0 0 25 33" fill="none" xmlns="http://www.w3.org/2000/svg">
<path d="M22.4016 0.543335H2.59839V7.54601H22.4016V0.543335Z" fill="white" stroke="#515151" stroke-width="1.08274"/>
<path d="M3.98477 2.07837H6.99835V2.84706H5.91425V6.0222H5.07106V2.84706H3.98477V2.07837V2.07837Z" fill="#515151"/>
<path d="M8.62997 3.82707C8.80664 3.82707 8.93294 3.78745 9.00886 3.7082C9.08624 3.62896 9.12494 3.49864 9.12494 3.31725C9.12494 3.13763 9.08624 3.00907 9.00886 2.93159C8.93294 2.8541 8.80664 2.81536 8.62997 2.81536H8.27518V3.82707H8.62997V3.82707ZM8.27518 4.52973V6.0222H7.43199V2.07837H8.71977C9.15049 2.07837 9.46586 2.16554 9.66589 2.33988C9.86738 2.51422 9.96812 2.78983 9.96812 3.16669C9.96812 3.42732 9.91556 3.64128 9.81044 3.80858C9.70677 3.97588 9.54982 4.09915 9.33957 4.1784C9.45491 4.2101 9.55785 4.2823 9.64837 4.39501C9.74035 4.50595 9.83307 4.67501 9.92651 4.90218L10.3842 6.0222H9.4863L9.08771 5.04219C9.0074 4.84495 8.92564 4.71023 8.84241 4.63803C8.76065 4.56583 8.65114 4.52973 8.5139 4.52973H8.27518V4.52973Z" fill="#515151"/>
<path d="M10.8836 2.07837H11.7268V4.44255C11.7268 4.76835 11.7706 5.00168 11.8582 5.14256C11.9472 5.28169 12.0918 5.35125 12.2918 5.35125C12.4933 5.35125 12.6379 5.28169 12.7255 5.14256C12.8145 5.00168 12.8591 4.76835 12.8591 4.44255V2.07837H13.7022V4.44255C13.7022 5.0008 13.5862 5.4164 13.354 5.68936C13.1219 5.96232 12.7678 6.0988 12.2918 6.0988C11.8173 6.0988 11.464 5.96232 11.2318 5.68936C10.9997 5.4164 10.8836 5.0008 10.8836 4.44255V2.07837V2.07837Z" fill="#515151"/>
<path d="M17.121 5.80557C16.9662 5.90242 16.8049 5.97551 16.637 6.02482C16.4691 6.07412 16.2939 6.09878 16.1114 6.09878C15.5668 6.09878 15.1353 5.91563 14.817 5.54933C14.4987 5.18128 14.3396 4.68291 14.3396 4.05422C14.3396 3.42377 14.4987 2.9254 14.817 2.5591C15.1353 2.19105 15.5668 2.00702 16.1114 2.00702C16.2939 2.00702 16.4691 2.03167 16.637 2.08098C16.8049 2.13029 16.9662 2.20337 17.121 2.30023V3.11647C16.9648 2.98791 16.8107 2.8937 16.6589 2.83382C16.507 2.77395 16.3472 2.74401 16.1792 2.74401C15.8785 2.74401 15.6419 2.86024 15.4697 3.0927C15.2974 3.32515 15.2112 3.64566 15.2112 4.05422C15.2112 4.46102 15.2974 4.78064 15.4697 5.0131C15.6419 5.24556 15.8785 5.36178 16.1792 5.36178C16.3472 5.36178 16.507 5.33185 16.6589 5.27197C16.8107 5.2121 16.9648 5.11788 17.121 4.98933V5.80557V5.80557Z" fill="#515151"/>
<path d="M17.8218 2.07837H18.665V3.51801L19.8805 2.07837H20.8595L19.2848 3.94594L21.0216 6.0222H19.9659L18.665 4.46897V6.0222H17.8218V2.07837V2.07837Z" fill="#515151"/>
</svg>
